src/icons/document-encrypt.svg

<svg height="32" viewBox="0 0 32 32" width="32" xmlns="http://www.w3.org/2000/svg"><path d="m22.588889 13.8568h-13.1776851v-3.690062c0-3.2959184 2.9557041-5.9772283 6.5888431-5.9772283 3.633137 0 6.588842 2.6814975 6.588842 5.9772283zm3.515031.03354v-3.723979c0-5.054199-4.532547-9.166361-10.103873-9.166361-5.571328 0-10.1038764 4.112162-10.1038764 9.166361v3.723979c-.7962419.150956-1.3961709.793697-1.3961709 1.560371v13.955001c0 .879046.7884216 1.594288 1.7575164 1.594288h19.4849719c.969093 0 1.757512-.715242 1.757512-1.594288v-13.954998c0-.766674-.599832-1.408676-1.39608-1.560371z" fill="#f25022" stroke-width="1.980014"/></svg>

<?xml version="1.0" encoding="UTF-8" standalone="no"?>
<svg
   xmlns:dc="http://purl.org/dc/elements/1.1/"
   xmlns:cc="http://creativecommons.org/ns#"
   xmlns:rdf="http://www.w3.org/1999/02/22-rdf-syntax-ns#"
   xmlns:svg="http://www.w3.org/2000/svg"
   xmlns="http://www.w3.org/2000/svg"
   xmlns:sodipodi="http://sodipodi.sourceforge.net/DTD/sodipodi-0.dtd"
   xmlns:inkscape="http://www.inkscape.org/namespaces/inkscape"
   viewBox="0 0 32 32"
   version="1.1"
   id="svg4"
   sodipodi:docname="document-encrypt.svg"
   inkscape:version="0.92.4 5da689c313, 2019-01-14"
   width="32"
   height="32">
  <metadata
     id="metadata10">
    <rdf:RDF>
      <cc:Work
         rdf:about="">
        <dc:format>image/svg+xml</dc:format>
        <dc:type
           rdf:resource="http://purl.org/dc/dcmitype/StillImage" />
        <dc:title />
      </cc:Work>
    </rdf:RDF>
  </metadata>
  <defs
     id="defs8" />
  <sodipodi:namedview
     pagecolor="#ffffff"
     bordercolor="#666666"
     borderopacity="1"
     objecttolerance="10"
     gridtolerance="10"
     guidetolerance="10"
     inkscape:pageopacity="0"
     inkscape:pageshadow="2"
     inkscape:window-width="1366"
     inkscape:window-height="703"
     id="namedview6"
     showgrid="false"
     inkscape:zoom="10.727273"
     inkscape:cx="11.932203"
     inkscape:cy="11"
     inkscape:window-x="0"
     inkscape:window-y="0"
     inkscape:window-maximized="1"
     inkscape:current-layer="svg4" />
  <path
     d="M 22.588889,13.8568 H 9.4112039 v -3.690062 c 0,-3.2959184 2.9557041,-5.9772283 6.5888431,-5.9772283 3.633137,0 6.588842,2.6814975 6.588842,5.9772283 z m 3.515031,0.03354 V 10.166361 C 26.10392,5.112162 21.571373,1 16.000047,1 10.428719,1 5.8961706,5.112162 5.8961706,10.166361 V 13.89034 C 5.0999287,14.041296 4.4999997,14.684037 4.4999997,15.450711 V 29.405712 C 4.4999997,30.284758 5.2884213,31 6.2575161,31 H 25.742488 C 26.711581,31 27.5,30.284758 27.5,29.405712 V 15.450714 c 0,-0.766674 -0.599832,-1.408676 -1.39608,-1.560371 z"
     id="path2"
     style="fill:#f25022;fill-opacity:1;stroke-width:1.98001361"
     inkscape:connector-curvature="0" />
</svg>
